X:87
T:Steyrer Tanz in G, nr. 52
C:traditionell
R:Steirer
A:Hallstatt, Salzkammergut
B:Corpus Musicae Popularis Austriacae (COMPA), 5.Band: J.M.Schmalnauer " Tanz Musik", Verlag Boehlau, Wien 1996
S:manuscript des Johann Michael Schmalnauer um 1820
N:im der quelle in G
Z:abc transcription Simon Wascher
F:http://simonwascher.info/TradArchiv/
M:3/4
L:1/8
K:G
V:1
%violino 1mo
P:g:Ap:
Td2 gDdg | fD Td2 fD | Td2 fDdf | gD d2 gD |\
Td2 gDdg | fD Td2 fD | d2 cBcA | "in D" G4 :|
V:2
%violino 2do
TB2 (dD)(Bd) | (cD) A2 (cD) | TA2 cDAc | dD B2 dD |\
TB2 (dD)(Bd) | (cD) A2 (cD) | B2 AGAD | B4 :|
